src/assets/image/block5/background-img.svg

<svg width="1102" height="80" fill="none" xmlns="http://www.w3.org/2000/svg"><path d="M30 0h204l-30 80H0L30 0ZM464 0h204l-30 80H434l30-80ZM898 0h204l-30 80H868l30-80Z" fill="#7A80EB"/></svg>

<svg width="1102" height="80" viewBox="0 0 1102 80" fill="none" xmlns="http://www.w3.org/2000/svg">
<path d="M30 0H234L204 80H0L30 0Z" fill="#7A80EB"/>
<path d="M464 0H668L638 80H434L464 0Z" fill="#7A80EB"/>
<path d="M898 0H1102L1072 80H868L898 0Z" fill="#7A80EB"/>
</svg>
